X:1
T:"Seven Up" -- Reel
R:reel
B:Ryan's Mammoth Collection
N:
Z: Contributed by Ray Davies,  ray:davies99.freeserve.co.uk
M:2/4
L:1/16
K:G
uD2|\
(3.G.G.G u(BG) vd2(Bd) | "0"efge edBd | c"4"eAc BdGB | ABcA GFED |
(3.G.G.G (BG) d2(Bd) | "0"efge edBd | c"4"eAc BdGB | AGF"4"A G2:|
|:ud2|\
gfga bgdg | "0"edef gdBd | gfga bgdg | "0"egfa g2d2 |
gfga bgdg | edef gdBG | DGBd gdBd | egfa g2:|
